X:14639
T:Romne Jig Collon Conder (Simon the Den)
R:Reel
S:Sc 1949
M:6/8
L:1/8
K:G
A|BGB G2G|G2G G2G|G2G G2G|BGG G2G|G2G G2B|d3 G2:|
B|dgd dBG|G2B B2B|dBG ABG|ABG G2:|!
B|d2B BAB|G2B BGB|A2A BAG|G2G G2:|!
B|cBA GFE|G2B BGB|A2A Bcd|BAB G2:|!
B|ABc def|g2g fga|g2g d2d|B2G G2:|!
g|ege edc|BAG ABc|dBA BAG|G2G BGG|!
B2d BGB|dBd gfe|d2B ABc|d2d BGG|!
G2B BGB|dBG GAB|d2e dBA|G2G Bdg|!
fdd edB|G2B dBG|A3 G2:|!